X:1
T:Avondstemming
T:Avondstemming met 2 tekstbalken 
T:Pfeil
T:Alice Nahon
C:Pfeil
Z:Alice Nahon
%%score { ( 1 2 3 ) | ( 4 5 ) }
L:1/8
Q:1/4=100
M:3/4
K:Bb
V:1 treble nm="Piano" snm="Pno."
V:2 treble 
V:3 treble 
V:4 bass 
V:5 bass 
V:1
 x2 D2 E2 | F3 F Bc | B2 A2 z A | c>=B cA GF | F2 z F Bc | d3 d dd | d2 cc cc | c3 e dc | %8
 B2 z B BB | c3 G A>B | B3 z z2 |] %11
V:2
 F2 D2 E2 | F3 F FF | F2 F2 z F | E>D EE EE | D2 z F FF | F3 F =FF | G2 GG GG | F3 E FE | %8
w: 'tIs goed in|'tei- gen hart te|kij- ken, nog|e- ven voor het sla- pen|gaan, of ik van|da- ge- raad tot|a- vond geen en- kel|hart heb zeer ge-|
w: of ik geen|o- gen heb doen|schrei- en, geen|wee- moed op een we- zen|lei, of ik aan|lief- de- lo- ze|men- sen een woor- de-|ke van lief- de|
w: en voel ik|in het huis mijns|har- ten, dat|ik een droe- fe- nis ge-|nas, dat ik mijn|ar- men heb ge-|won- den rond- om een|hoofd dat een- zaam|
w: dan voel ik|op mijn jon- ge|lip- pen, die|goed- heid lijk een a- vond-|zoen, 'tis goed in|ei- gen hart te|kij- ken en zo zijn|o- gen toe te|
 D2 z D DD | C3 C C>D | D3 z z2 |] %11
w: daan, geen en- kel|hart heb zeer ge-|daan|
w: zei, een woor- de-|ke van lief- de|zei|
w: was, rond- om een|hoofd dat een- zaam|was|
w: doen, en zo zijn|o- gen toe te|doen|
V:3
 F2 x4 | x6 | x6 | x6 | x6 | x6 | x6 | x6 | x6 | x6 | x6 |] %11
V:4
 F,2 D,2 E,2 | F,3 F, DE | D2 C2 z C | A,>^G, A,C C^C | D2 z F, B,A, | B,3 B, B,B, | %6
w: 'tIs goed in|'tei- gen hart te|kij- ken, nog|e- ven voor het sla- pen|gaan, of ik van|da- ge- raad tot|
w: of ik geen|o- gen heb doen|schrei- en, geen|wee- moed op een we- zen|lei, of ik aan|lief- de- lo- ze|
w: en voel ik|in het huis mijns|har- ten, dat|ik een droe- fe- nis ge-|nas, dat ik mijn|ar- men heb ge-|
w: dan voel ik|op mijn jon- ge|lip- pen, die|goed- heid lijk een a- vond-|zoen, 'tis goed in|ei- gen hart te|
 B,2 B,B, B,B, | A,3 A, A,A, | B,2 z G, G,G, | G,3 G, F,>F, | F,3 z z2 |] %11
w: a- vond geen en- kel|hart heb zeer ge-|daan, geen en- kel|hart heb zeer ge-|daan|
w: men- sen een woor- de-|ke van lief- de|zei, een woor- de-|ke van lief- de|zei|
w: won- den rond- om een|hoofd dat een- zaam|was, rond- om een|hoofd dat een- zaam|was|
w: kij- ken en zo zijn|o- gen toe te|doen, en zo zijn|o- gen toe te|doen|
V:5
 F,2 D,2 E,2 | F,3 F, F,F, | F,2 F,2 z F, | F,>F, F,F, F,A,, | B,,2 z F, D,E, | B,,3 D, D,D, | %6
 E,2 E,E, E,E, | F,3 F, F,F, | G,2 z G, G,G, | E,3 E, F,>B,, | B,,3 z z2 |] %11

